packages/symbols/svgs/solid/graduation-cap-solid.svg

<svg width="16" height="16" viewBox="0 0 16 16" fill="none" xmlns="http://www.w3.org/2000/svg">
<g clip-path="url(#clip0_230_263)">
<path fill-rule="evenodd" clip-rule="evenodd" d="M8.50001 0.0999939L15.5 4.09999C16.2 4.49999 16.2 5.49999 15.5 5.79999L8.50001 9.79999C8.20001 9.99999 7.80001 9.99999 7.50001 9.79999L0.500006 5.79999C-0.199994 5.49999 -0.199994 4.49999 0.500006 4.09999L7.50001 0.0999939C7.80001 -6.10389e-06 8.20001 -6.10389e-06 8.50001 0.0999939ZM8 12C8.5 12 9 11.9 9.5 11.6L14 9V13C14 15.1 10.9 16 8 16C5.1 16 2 15.1 2 13V9L6.5 11.6C7 11.9 7.5 12 8 12Z" fill="black"/>
</g>
<defs>
<clipPath id="clip0_230_263">
<rect width="16" height="16" fill="white"/>
</clipPath>
</defs>
</svg>

<svg width="16" height="16" viewBox="0 0 16 16" xmlns="http://www.w3.org/2000/svg"><g clip-path="url(#a)"><path fill-rule="evenodd" clip-rule="evenodd" d="m8.5.1 7 4c.7.4.7 1.4 0 1.7l-7 4c-.3.2-.7.2-1 0l-7-4c-.7-.3-.7-1.3 0-1.7l7-4c.3-.1.7-.1 1 0ZM8 12c.5 0 1-.1 1.5-.4L14 9v4c0 2.1-3.1 3-6 3s-6-.9-6-3V9l4.5 2.6c.5.3 1 .4 1.5.4Z"/></g><defs><clipPath id="a"><path fill="#fff" d="M0 0h16v16H0z"/></clipPath></defs></svg>
